Sources/FrostedUI/Resources/Icons.xcassets/heading16.imageset/heading-16.svg

<svg width="16" height="16" viewBox="0 0 16 16" fill="none" xmlns="http://www.w3.org/2000/svg" data-fui-icon="true">
  <path
    d="M2 2.73972C2 2.33118 2.33119 2 2.73973 2H5.36986C5.7784 2 6.10959 2.33118 6.10959 2.73972C6.10959 3.14826 5.7784 3.47944 5.36986 3.47944H4.79453V7.26028H11.2055V3.47944H10.6301C10.2216 3.47944 9.89041 3.14826 9.89041 2.73972C9.89041 2.33118 10.2216 2 10.6301 2H13.2603C13.6688 2 14 2.33118 14 2.73972C14 3.14826 13.6688 3.47944 13.2603 3.47944H12.6849V12.5206H13.2603C13.6688 12.5206 14 12.8517 14 13.2603C14 13.6688 13.6688 14 13.2603 14H10.6301C10.2216 14 9.89041 13.6688 9.89041 13.2603C9.89041 12.8517 10.2216 12.5206 10.6301 12.5206H11.2055V8.73972H4.79453V12.5206H5.36986C5.7784 12.5206 6.10959 12.8517 6.10959 13.2603C6.10959 13.6688 5.7784 14 5.36986 14H2.73973C2.33119 14 2 13.6688 2 13.2603C2 12.8517 2.33119 12.5206 2.73973 12.5206H3.31508V3.47944H2.73973C2.33119 3.47944 2 3.14826 2 2.73972Z"
    fill="currentColor"
  />
</svg>

<svg xmlns="http://www.w3.org/2000/svg" width="16" height="16" fill="none" data-fui-icon="true" viewBox="0 0 16 16"><path fill="currentColor" d="M2 2.74A.74.74 0 0 1 2.74 2h2.63a.74.74 0 1 1 0 1.48h-.575v3.78h6.41V3.48h-.575a.74.74 0 0 1 0-1.48h2.63a.74.74 0 0 1 0 1.48h-.575v9.04h.575a.74.74 0 1 1 0 1.48h-2.63a.74.74 0 0 1 0-1.48h.575V8.74h-6.41v3.78h.575a.74.74 0 1 1 0 1.48H2.74a.74.74 0 0 1 0-1.48h.575V3.48H2.74A.74.74 0 0 1 2 2.74"/></svg>
